!!!OTL: Veni creator Spiritus
**kern
*staff1
=1-
*clefF4
*k[]
1D
1GG
=2
1C
2D\
2BB/
=3
1AA
2.BB/
4AA/
=4
1GG
1D
=5
1BB
1AA
!!linebreak:original
=6
2.GG/
4AA/
2BB/
2C/
=7
1D
2C/
2BB/
=8
1AA
2BB/
2GG/
=9
1AA
1C
=10
1AA
1D
=11
1AA
2BB/
2GG/
=12
1AA
1D
=13
0D
==
*-
!!title: @{OTL}, @{GTL}, ed. @{ENC}
!!!pag:
!!!GTL: Hymnbook D
!!!EFL: 
!!!YEM: Creative Commons CC/BY/NC/SA 4.0
!!!ENC: Marcin Konik
!!!END: 2015-0m-dd
!!!EED: Marcin Konik
!!!EEV: 
!!!ONB: Encoded in vim by Marcin Konik
!!!CharacterEncoding: utf-8
!!!RDF**kern: l=long note in original notation
!!!RDF**kern: i=editorial accidental
!!muse2ps: z14jc180F
!!!COM: Anonim
!!!CDT: [?]
!!!TXO: Polish
!!!ODT: 
!!!GTL: Hymnbook D
!!!ARL: Opactwo św. Wojciecha, Staniątki 
!!!voices:	1
